X:1
T:James Gibb editions
T:Psalm 112 (Becker) - Schütz
%%score [ ( 1 2 ) ( 3 4 ) ]
L:1/8
Q:1/4=98
M:2/2
K:F
V:1 treble nm="Soprano Alto"
V:2 treble 
V:3 bass nm="Tenor Bass"
V:4 bass 
V:1
"^Cornelius Becker\n(1561-1604)""^Psalm 112, SWV 210""^Heinrich Schütz\n(1585-1672)" c4 A4 | %1
w: ~Der ist|
w: und hat|
 B2 c4 B2 | A2 A2 G4 | E4 F4 | G2 A4 G2 | F4 E4 :|[M:2/2] C4 D2 E2 | F4 E4 | F2 D2 C4 | c4 B4 | %10
w: für- wahr ein|se- lig Mann,|wer Gott|von Her- zen|fürch- tet|Gott hält ihn|wert auf|die- ser Erd,|sein Sa-|
w: sein Lust und|Freud da- ran,|wenn er|dem Wort ge-|hör- chet.|||||
 G2 ^F4 G2 | A4 G4 | G4 F2 F2 | E4 G4 | A2 B2 c4 | d4 B4 | A2 G4 F2 | G8 | F8 |] %19
w: me wird ver-|meh- ret,|sein ganz Ge-|schlecht, fromm|und ge- recht,|mit Se-|gen wird ver-|eh-|ret.|
w: |||||||||
V:2
 F4 F4 | D2 F4 F2 | F2 F2 E4 | C4 A,4 | E2 F4 E2 | D4 ^C4 :|[M:2/2] A,4 A,2 C2 | C4 C4 | %8
 C2 =B,2 C4 | C4 F4 | _E2 D4 B,2 | D4 D4 | C4 A,2 =B,2 | C4 E4 | F2 D2 F4 | F4 G4 | F2 E4 F2 | %17
 (F4 E4) | x4 x4 |] %19
V:3
 A,4 C4 | B,2 A,4 D2 | C2 C2 C4 | G,4 F,4 | C2 C4 C2 | A,4 A,4 :|[M:2/2] E,4 F,2 G,2 | A,4 G,4 | %8
 A,2 G,2 G,4 | A,4 D4 | C2 A,4 G,2 | ^F,4 G,4 | %12
"^2. Ins Frommen Haus ist Glück und Heil, Gott und g'nug muß er haben,\nreichlich wird ihm sein b'scheiden Teil von Gottes milden Gaben,\nsein G'rechtigkeit ewiglich bleibt, Gott läßts ihn wohl genießen\nund richts dahin, daß zu Gewinn ihm all Ding muß ersprießen.\n\n3. Obs gleich zuweilen finster scheint, wenn Trübsal ihn beschweret,\nists doch von Gott nicht bös gemeint, gar bald sichs Wetter kehret,\nwanns Licht der Freud zu rechter Zeit aufgeht von Gottes Gnaden,\nder treue Gott hilft ihm aus Not, zuletzt muß ihm geraten.\n\n4. Wohl dem Mann, der Barmherzigkeit an seinem Nächsten übet,\ngibt, leiht, und richts dahin allzeit, daß er niemand betrübet,\nwers also treibt, im Segen bleibt, sein wird nimmer vergessen,\nganz unverzagt auf Gott ers wagt, kein Unglück wird ihn fressen." E,4 F,2 D,2 | %13
 G,4 C4 | C2 B,2 A,4 | B,4 D4 | C2 C4 A,2 | C8 | C8 |] %19
V:4
 F,4 F,4 | G,2 F,4 B,,2 | F,2 F,2 C,4 | C,4 D,4 | C,2 F,4 C,2 | D,4 A,,4 :|[M:2/2] A,,4 D,2 C,2 | %7
 F,4 C,4 | F,2 G,2 C,4 | F,4 B,,4 | C,2 D,4 _E,2 | D,4 G,,4 | C,4 D,2 D,2 | C,4 C,4 | F,2 G,2 F,4 | %15
 B,,4 G,,4 | A,,2 C,4 D,2 | C,8 | F,8 |] %19

